X:179
T:Lib the Loun or.. JJo8.179
B:J.Johnson Choice Collection Vol 8 1758
Z:vmp.Simon Wilson 2013 www.village-music-project.org.uk
T:Balgeny. JJo8.179
M:2/4
L:1/8
Q:1/4=100
K:F
|:c>d c/B/A/G/|FCDE|FdcB|A2f2|c>d c/B/A/G/|FCDE|FdcB|{B}A2{G}F2:|
|:fafa|fafc|dbdg|{f}e2{d}c2|c>d c/B/A/G/|Fcde|fdcB|{B}A2{G}F2:|
